X:1
T:Title
%%score { ( 1 4 ) | ( 2 3 ) }
L:1/8
Q:1/4=100
M:4/4
K:Bb
V:1 treble nm="Grand Piano"
V:4 treble 
V:2 bass 
V:3 bass 
V:1
 [DF][EG][DF][CE] [B,D][DF] B>B | c2 [EG]2 z4 | AGAB AG G>A | [DG]2[K:bass] [B,D]2[K:treble] z4 | %4
w: R.~E.~Winsett * * * * * * *||||
 [DF][EG][DF][CE] [B,D][DF] B>B | c2 [EG]2 z4 | [Gc][GB][FA]G FF B>c | d2 c2 [DB]4 | z4 z [Fd]3 | %9
w: |||||
 [=Ec][Ec][EG][EG] [Ec]4 | z4 z c3 | [DB][DB][DF][DF] [DB]4 | z4 z [Ge]3 | %13
w: ||||
 [Ge][Ge][GB][Gc] [^Fd]4 |[M:17/16] [Gc][GB][FA]GF[Ff]3/2[DB]>[Ge] |[M:4/4] [Fd]2 [Ec]2 [DB]4 |] %16
w: |||
V:2
 [B,,B,][B,,B,][B,,B,][B,,F,] .[B,,F,]2 D>D | E-[E,E]E,E, [E,G,E]4 | %2
 [F,F][F,=E][F,CF][F,CG] [F,CF]_E E>E | B,,B,,B,,B,, [B,,B,]4 | %4
 [B,,B,][B,,B,][B,,B,][B,,F,] .[B,,F,]2 D>D | E-[E,E]E,E, [E,G,E]4 | %6
 [E,B,][E,B,][E,B,][E,B,E] [F,B,D][F,B,D] [G,B,D]>[G,B,E] | [F,B,F]2 [F,A,E]2 [B,,B,]4 | %8
 z[K:treble] F=E[K:bass][B,,B,] [B,,B,][B,,B,] B,,>B,, | [C,G,]2 [C,C]2 [C,G,]4 | %10
 z ED[F,A,E] [F,B,F]E-[F,E-][F,E] | [B,,F,]2 [B,,B,]2 [B,,F,]4 | %12
 z[K:treble] F=E[K:bass][B,,B,] [E,B,][E,B,] E,>E, | [E,B,]2 [E,G,]2 [D,A,]4 | %14
[M:17/16] [E,G,][E,B,][E,B,][E,B,E][D,B,][D,B,]3/2[G,B,]>[E,B,] | %15
[M:4/4] [F,B,]2 [F,A,]2 [B,,B,]4 |] %16
V:3
 z4 z [B,,B,]3 | .[E,G,]2 z2 z4 | z4 z [F,C]3 | x8 | z4 z [B,,B,]3 | .[E,G,]2 z2 z4 | x8 | x8 | %8
 [B,,B,]4[K:treble][K:bass] z4 | x8 | [F,A,]4 z [F,A,] z2 | x8 | [B,,B,]4[K:treble][K:bass] z4 | %13
 x8 |[M:17/16] x17/2 |[M:4/4] x8 |] %16
V:4
 x8 | z G,B,B, c4 | x8 | B,[K:bass]B,F,F,[K:treble] [DF]4 | x8 | z G,B,B, c4 | x8 | x8 | %8
 [Fd]d_d[F=d] .[Ge]2 B,>B, | x8 | [Ec]c=Bc .d2 A,A, | x8 | [Fd]d_d[F=d] .[Gf]2 B,>B, | x8 | %14
[M:17/16] x17/2 |[M:4/4] x8 |] %16

